X:1
T:When that the Lord again
T:Edward Johnson (1572-1601)
T:Source : The Whole Book of Psalms---London---Musical Antiquarian Society---1844. First Publication : London---Th.Est(e)---1592. Editor : André Vierendeels (16/09/16).
T:When that the Lord again (Ps 126)
T:©
T:©
T:©
C:Edward Johnson
C:(1572-1601)
Z:©
%%score [ 1 [ 2 3 ] 4 ]
L:1/8
Q:1/4=120
M:4/4
K:C
V:1 treble nm="Soprano" snm="S"
V:2 treble-8 nm="Tenor 1" snm="T 1"
V:3 treble-8 nm="Tenor 2" snm="T 2"
V:4 bass nm="Bass" snm="B"
V:1
 A4 A2 A2 | A2 A2 G2 G2 | G2 A2 c2 B2 |[M:2/4] A4 || F4 |[M:4/4] F2 F2 F2 F2 | G2 G2 F3 G | %7
w: When that the|Lord a- gain his|Si- on had brought|forth,|from|bon- dage great and|al- so ser- vi|
 A2 A2 A4 || A4 d2 c2 | c4 _B4 | _B2 A2 B2 A2 | A3 G ^F4 || F4 G2 E2 | A4 A4 | A2 A2 A2 A2 | %15
w: tude ex- treme,|his work was|such as|did sur- mount mans|heart and thought,|so that we|were much|like to them that|
 A2 ^G2 A4 || F4 G2 F2- | F2 G2 A2 d2 | c3 _B A4 || F4 _B2 G2 | F4 A4 | c2 FG A3 G | ^F8 |] %23
w: use to dream,|our mouths were|_ with laugh- ter|fil- led then,|and eke our|tongues did|shew us _ joy- ful|men.|
V:2
 f4 f2 f2 | f2 f2 e2 e2 | d2 f2 e3 d |[M:2/4] ^c4 || d4 |[M:4/4] d2 d2 c2 c2 | e2 d2 d2 d2 | %7
w: When that the|Lord a- gain his|Si- on had brought|forth,|from|bon- dage great and|al- so ser- vi-|
 e2 e2 ^f4 ||"^-natural" f4 f2 e2 | f4 d4 | d2 d2 d2 d2 | d2 ^c2 d4 ||"^-natural" c4 e2 e2 | %13
w: tude ex- treme,|his work was|such as|did sur- mout mans|heart and thought,|so that we|
 f4 f4 | f2 f2 e2 e2 | e3 d ^c4 || d4 d2 d2 | A2 d2 c2 f2- | f2 e2 f4 || c2 d4 e2 | c4 f4 | %21
w: were much|like to them that|use to dream,|our mouths were|with laugh- ter fil-|* led then,|and eke our|tongues did|
 e2 d2 d2 ^c2 | d8 |] %23
w: shew us joy- ful|men.|
V:3
 A4 A2 d2 | c2 A2 c2 c2 | B2 A2 A2 ^G2 |[M:2/4] A4 || A4 |[M:4/4] F2 D2 A2 A2 | c2 B2 A2 d2 | %7
w: When that the|Lord a- gain his|Si- on had brought|forth,|from|bon- dage great and|al- so ser- vi-|
 d2 ^c2 d4 || A4 _B2 G2 | A4 F4 | G2 A2 D2 F2 | E2 E2 D4 || A4 B2 c2 | d4 A4 | d2 d2 c2 c2 | %15
w: tude ex- treme,|his work was|such as|did sur- mount mans|heart and thought,|so that we|were much|like to them that|
 B2 B2 A4 || A4 G2 A2 | F2 D2 A2 _B2 | A2 G2 F4 || A4 d2 c2 | A4 F4 | G2 D2 F2 E2 | D8 |] %23
w: use to dream,|our mouths _|were with laugh- ter|fil- led then,|and eke our|tongues did|shew us joy- ful|men.|
V:4
 D,4 D,2 D,2 | F,2 F,2 C,2 C,2 | G,2 D,2 E,2 E,2 |[M:2/4] A,,4 || D,4 |[M:4/4] D,2 D,2 F,2 F,2 | %6
w: When that the|Lord a- gain his|Si- on had brought|forth,|from|bon- dage great and|
 C,2 G,2 D,2 _B,2 | A,2 A,2 D,4 || F,4 _B,,2 C,2 | F,,4 _B,,4 | G,,2 D,2 _B,,2 D,2 | %11
w: al- so ser- vi-|tude ex- treme,|his work was|such as|did sur- mount mans|
 A,,2 A,,2 D,4 || F,4 E,2 E,2 | D,4 D,4 | D,2 D,2 A,,2 A,,2 | E,2 E,2 A,,4 || D,4 G,,2 D,2- | %17
w: heart and thought,|so that we|were much|like to them that|use to dream,|our mouths were|
 D,2 _B,,2 F,2 B,,2 | C,2 C,2 F,,4 || F,4 G,2 C,2 | F,4 D,4 | C,2 _B,,2 A,,2 A,,2 | D,8 |] %23
w: _ with laugh- ter|fil- led then,|and eke our|tongues did|shew us joy- ful|men.|

